X:434
T:Shepherd's Wife, The
R:Waltz
C:Traditional
M:3/4
L:1/4
K:G
|:D| "G"G2A | B2c | d2g | g>fd | "C"e>fg | "G"d>cB |"A"A>BG | "D"FED |!
"G"G2A | B2c | d2g | g>fd | "C"e>fg | "D7"a>gf | "G"g3- | g2 :|!
|:g/a/ | "G"b2b | "Bm"a>gf | "Em"g2g | "D"f>ed | "C"e>fg | "Bm"dcB | "Am" ABG | "D"FED |!
"G"b2b | "Bm"a>gf | "Em"g>ag | "G/D"g>fd | "C"e>fg | "D"agf | "G"g3-| g2 :|]
